X: 462
T: Charleston No.2
C:Willie Narmour, 1929
B: jims roots
M:4/4
L:1/16
Q: 1/4=100
K:C
V:1 
AB | "C"cecG ECDE | "F"F2 [A,2F2d2][A,2F2d2] eg | "G"fdBG AGED | "C"CDEF G2AB |
"C"cecG ECDE | "F"F2 [A,2F2d2][A,2F2d2] eg | "G"fdBG AcBG | "C"{B}[E2c][E2c][E2c] cd ||
"C"edef gecB | "F"A2{g}[c2a] [ca]agf | "C"edef gage | "G"dcBA G2[G2B,] |
"C"edef gecB | "F"A2{g}[c2a] [c2a](ac' |[M:6/4] "C"c')age "F"fedc "G"BGAB |[M:4/4] "C"c2[E2c][E2c] |]
% abcbook-tune_id 6298c2453a042286b2a0c2a0


% abcbook-boost 0
% abcbook-tablature 
% abcbook-transpose 
% abcbook-lastupdated 1654178373667
% abcbook-soundfonts 
% abcbook-repeats 1


